X:1
T:Title
%%score ( 1 2 ) { 3 | 4 }
L:1/8
Q:1/4=82
M:3/8
K:G
V:1 treble nm="Grand Piano, Soprano"
V:2 treble 
V:3 treble nm="Choir Pad, My Petition, Clara E. Choate"
V:4 bass 
V:1
 [GB]2 [Ac] | [Bd]2 [GB] | [EG]2 [DA] | [DB]2 [DG] | [FA]2 [FB] | G2 [GB] | e z z | [FA]3 | %8
w: By~Arranged~from~Franz~Wilhelm~Abt~(1819\-1885) *||||||||
 [DB]2 [Dc] | [Dd]2 [DB] | [EG]2 [DA] | [Dc]2 [DB] | [DA]2 [DA] | [FA][Af][Fd] | [FA]2 [EG] | %15
w: |||||||
 G2 z | EG[GB] | [Fd]2 [DF] | F2 z | D3 | [Bd]2 [Ac] | [GB]2 [GB] | [GB]2 [DA] | [DA]2 [DG] | %24
w: |||||||||
 [FA]2 [FB] | G2 [GB] | ed[GB] | [FA]3 | [DB]2 [Dc] | [Dd]2 [DB] | [EG]2 [DA] | [Dc]2 [DB] | %32
w: ||||||||
 [EA]2 [Ge] | [Gd]2 [GB] | [GB]2 [FA] | G3 | E-[Ec][Ge] | ed[GB] | G z z | [DG]3- | [DG]3- | %41
w: |||||||||
 [DG] z z |] %42
w: |
V:2
 x3 | x3 | x3 | x3 | x3 | x3 | G-[Gd][GB] | x3 | x3 | x3 | x3 | x3 | x3 | x3 | x3 | D2- [DF] | x3 | %17
 x3 | DB,[CE] | x3 | x3 | x3 | x3 | x3 | x3 | x3 | G2 z | x3 | x3 | x3 | x3 | x3 | x3 | x3 | x3 | %35
 x3 | A z z | G2 z | B-[DB][DA] | x3 | x3 | x3 |] %42
V:3
 D2 D | D2 D | C2 C | B,2 B, | C2 D | B,2 G, | CB,D | D3 | G,2[K:bass] A, | B,2 G, | G,2 F, | %11
 A,2 G, | F,2 F, | A,2 A, | A,[K:treble]DC | D3 | B,2 B, | A,2 A, | A,2 G, | F,3 | D2 D | D2 D | %22
 D2 C | C2 B, | C2 D | B,2 G, | CB,D | D3 | G,2 A, | B,2 G, | G,2 F, | A,2 G, | E2 C | B,2 D | %34
 D2 C | B,3 | C2 C | B,2 D | D2 C | B,3- | B,3- | B, z z |] %42
V:4
 G,2 G, | G,2 G, | G,2 G, | G,2 G, | D,2 D, | G,2 z | G,2 G, | D,3 | z z G, | G,2 z | C,2 A,, | %11
 G,,2 G,, | A,,2 A,, | A,,2 A,, | A,,2 _B,, | B,,3 | G,,2 G,, | A,,F,D, | A,,2 A,, | D,3 | %20
 G,,2 G,, | G,,2 B,, | D,2 D, | G,,2 G,, | D,2 D, | G,2 z | G,2 G, | D,3 | z z G, | G,2 z | %30
 C,2 A,, | G,,2 G,, | C,2 C, | D,2 D, | D,2 ^D, | E,3 | C,2 C, | D,2 D, | D,2 D, | G,,3- | G,,3- | %41
 G,, z z |] %42

